Catalina-dark/actions/22/view-calendar-whatsnext.svg

<svg xmlns="http://www.w3.org/2000/svg" viewBox="0 0 22 22">
  <defs id="defs3051">
    <style type="text/css" id="current-color-scheme">
      .ColorScheme-Text {
        color:#f2f2f2
      }
      </style>
  </defs>
 <path 
     style="fill:currentColor;fill-opacity:1;stroke:none"      
	 class="ColorScheme-Text"
        d="M 4 3 C 3.4459836 3 3 3.4459836 3 4 L 3 18 C 3 18.554016 3.4459836 19 4 19 L 18 19 C 18.554016 19 19 18.554016 19 18 L 19 4 C 19 3.4459836 18.554016 3 18 3 L 4 3 z M 10.994141 6 C 11.816182 6 12.483142 6.244617 12.998047 6.7324219 C 13.512952 7.2111933 13.771484 7.8244446 13.771484 8.5742188 C 13.771484 8.899422 13.685307 9.2302165 13.513672 9.5644531 C 13.342037 9.8986898 13.188236 10.136715 13.052734 10.28125 C 12.926266 10.416751 12.746588 10.593745 12.511719 10.810547 L 12.443359 10.878906 C 11.892321 11.375745 11.617187 11.872302 11.617188 12.369141 L 11.617188 12.910156 L 10.34375 12.910156 L 10.34375 12.273438 C 10.34375 11.866933 10.427974 11.519538 10.599609 11.230469 C 10.771244 10.932366 11.074208 10.584971 11.507812 10.1875 C 11.751715 9.9616644 11.92407 9.793948 12.023438 9.6855469 C 12.131839 9.5681124 12.234617 9.4096728 12.333984 9.2109375 C 12.442385 9.0031688 12.498047 8.7910209 12.498047 8.5742188 C 12.498047 8.1586813 12.360846 7.8252015 12.089844 7.5722656 C 11.827874 7.3193298 11.463879 7.1933594 10.994141 7.1933594 C 10.217266 7.1933594 9.6836008 7.626932 9.3945312 8.4941406 L 8.2285156 8.0058594 C 8.4182175 7.4909542 8.7443735 7.0295509 9.2050781 6.6230469 C 9.6748162 6.2075094 10.271467 6 10.994141 6 z M 10.980469 14.15625 C 11.242438 14.15625 11.459224 14.247066 11.630859 14.427734 C 11.811528 14.608403 11.900391 14.825189 11.900391 15.078125 C 11.900391 15.331061 11.811528 15.547847 11.630859 15.728516 C 11.459224 15.909184 11.242438 16 10.980469 16 C 10.718499 16 10.497075 15.909184 10.316406 15.728516 C 10.144771 15.547847 10.058594 15.331061 10.058594 15.078125 C 10.058594 14.825189 10.144771 14.608403 10.316406 14.427734 C 10.497075 14.247066 10.718499 14.15625 10.980469 14.15625 z "
     />
</svg>

<svg width="22" height="22" viewBox="3 3 16 16" xmlns="http://www.w3.org/2000/svg">
<defs>
<style id="current-color-scheme" type="text/css">.ColorScheme-Text {
        color:#f2f2f2
      }</style>
</defs>
<path class="ColorScheme-Text" d="m4 3c-0.55402 0-1 0.44598-1 1v14c0 0.55402 0.44598 1 1 1h14c0.55402 0 1-0.44598 1-1v-14c0-0.55402-0.44598-1-1-1h-14zm6.9941 3c0.82204 0 1.489 0.24462 2.0039 0.73242 0.5149 0.47877 0.77344 1.092 0.77344 1.8418 0 0.3252-0.086177 0.656-0.25781 0.99023-0.17164 0.33424-0.32544 0.57226-0.46094 0.7168-0.12647 0.1355-0.30615 0.3125-0.54102 0.5293l-0.06836 0.068359c-0.55104 0.49684-0.82617 0.9934-0.82617 1.4902v0.54102h-1.2734v-0.63672c0-0.4065 0.084224-0.7539 0.25586-1.043 0.17164-0.2981 0.4746-0.6455 0.9082-1.043 0.2439-0.22584 0.41626-0.39355 0.51563-0.50195 0.1084-0.11743 0.21118-0.27587 0.31055-0.47461 0.1084-0.20777 0.16406-0.41992 0.16406-0.63672 0-0.41554-0.1372-0.74902-0.4082-1.002-0.26197-0.25294-0.62596-0.37891-1.0957-0.37891-0.77688 0-1.3105 0.43357-1.5996 1.3008l-1.166-0.48828c0.1897-0.51491 0.51586-0.97631 0.97656-1.3828 0.46974-0.41554 1.0664-0.62305 1.7891-0.62305zm-0.013672 8.1562c0.26197 0 0.47876 0.090816 0.65039 0.27148 0.18067 0.18067 0.26953 0.39746 0.26953 0.65039s-0.088863 0.46972-0.26953 0.65039c-0.17164 0.18067-0.38842 0.27148-0.65039 0.27148-0.26197 0-0.48339-0.090816-0.66406-0.27148-0.17164-0.18067-0.25781-0.39746-0.25781-0.65039s0.086177-0.46972 0.25781-0.65039c0.18067-0.18067 0.40209-0.27148 0.66406-0.27148z" fill="currentColor"/>
</svg>
